X: 31078
T: Paddy Fahey's
R: reel
M: 4/4
K: Dmajor
|:FD~D2 FAGE|FDFA GECE|FD~D2 FGAd|cdec dBAG|
FD~D2 FAGE|FDFA GECE|FD~D2 FGAd|1 cdec d2AG:|2 cdec d3e||
fdec AddB|=cAGE =CDEg|fdec dcAG|Addc d2de|
fdec AddB|=cAGE =CDEG|FD~D2 FGAd|cdec d3g|
gdec AddB|=cAGE =CDEg|fdec dcAG|Addc defg|
afge fded|=cAGE =CDEG|FD~D2 FGAd|cdec d3d||

